X: 122
T:Toutouig
M:6/8
L:1/8
Q:3/8=60
K:AMin
% dorian/minor hexatonic
z|c2c B2B|A2A E2E|c2c BAG|A3- A2
A|ece dBd|cAc B2A|ece dBd|cAc B2
z|c2c B2B|A2A E2E|c2c BAG|A3- A2|]

A Finnish tune probably based on an 18th century Russian song:

